third_party/region-flags/svg/CA-NL.svg

<?xml version="1.0" encoding="UTF-8" standalone="no"?>
<svg
   xmlns:dc="http://purl.org/dc/elements/1.1/"
   xmlns:cc="http://creativecommons.org/ns#"
   xmlns:rdf="http://www.w3.org/1999/02/22-rdf-syntax-ns#"
   xmlns:svg="http://www.w3.org/2000/svg"
   xmlns="http://www.w3.org/2000/svg"
   xmlns:sodipodi="http://sodipodi.sourceforge.net/DTD/sodipodi-0.dtd"
   xmlns:inkscape="http://www.inkscape.org/namespaces/inkscape"
   version="1.0"
   width="1000"
   height="500"
   id="svg2"
   inkscape:version="0.48.2 r9819"
   sodipodi:docname="AJAX1.svg">
  <metadata
     id="metadata30">
    <rdf:RDF>
      <cc:Work
         rdf:about="">
        <dc:format>image/svg+xml</dc:format>
        <dc:type
           rdf:resource="http://purl.org/dc/dcmitype/StillImage" />
      </cc:Work>
    </rdf:RDF>
  </metadata>
  <defs
     id="defs28" />
  <sodipodi:namedview
     pagecolor="#ffffff"
     bordercolor="#666666"
     borderopacity="1"
     objecttolerance="10"
     gridtolerance="10"
     guidetolerance="10"
     inkscape:pageopacity="0"
     inkscape:pageshadow="2"
     inkscape:window-width="1280"
     inkscape:window-height="1004"
     id="namedview26"
     showgrid="false"
     fit-margin-top="0"
     fit-margin-left="0"
     fit-margin-right="0"
     fit-margin-bottom="0"
     inkscape:zoom="0.644"
     inkscape:cx="260.44954"
     inkscape:cy="122.00354"
     inkscape:window-x="-8"
     inkscape:window-y="-8"
     inkscape:window-maximized="1"
     inkscape:current-layer="svg2" />
  <path
     style="fill:#ffffff;stroke:none"
     d="m 0,0 1000,0 0,500 -1000,0 z"
     id="rect4"
     inkscape:connector-curvature="0" />
  <path
     d="M 30,280 30,450 340,280 z"
     id="path10"
     style="fill:#002373;fill-opacity:1;stroke:none"
     inkscape:connector-curvature="0" />
  <path
     d="m 400,310 0,160 -290,0 z"
     id="path12"
     style="fill:#002373;fill-opacity:1;stroke:none"
     inkscape:connector-curvature="0" />
  <path
     d="m 460,300 0,170 510,0 z"
     id="path18"
     style="fill:#cd0019;fill-opacity:1;stroke:none"
     inkscape:connector-curvature="0" />
  <path
     d="m 480,330 0,120 370,0 z"
     id="path20"
     style="fill:#ffffff;stroke:none"
     inkscape:connector-curvature="0" />
  <path
     d="m 460,220 490,0 25,30 -25,30 -490,0 30,-30 z"
     id="path22"
     style="fill:#cd0019;fill-opacity:1;stroke:none"
     inkscape:connector-curvature="0" />
  <path
     d="m 490,230 450,0 20,20 -20,20 -450,0 20,-20 z"
     id="path24"
     style="fill:#f8d80e;fill-opacity:1;stroke:none"
     inkscape:connector-curvature="0" />
  <path
     inkscape:connector-curvature="0"
     style="fill:#002373;fill-opacity:1;stroke:none"
     id="path3790"
     d="M 30,220 30,50 340,220 z" />
  <path
     inkscape:connector-curvature="0"
     style="fill:#002373;fill-opacity:1;stroke:none"
     id="path3792"
     d="M 400,190 400,30 110,30 z" />
  <path
     inkscape:connector-curvature="0"
     style="fill:#cd0019;fill-opacity:1;stroke:none"
     id="path3794"
     d="m 460,200 0,-170 510,0 z" />
  <path
     inkscape:connector-curvature="0"
     style="fill:#ffffff;stroke:none"
     id="path3796"
     d="m 480,170 0,-120 370,0 z" />
</svg>

<svg xmlns="http://www.w3.org/2000/svg" version="1" width="1000" height="500"><path d="M0 0h1000v500H0z" fill="#fff"/><path d="M30 280v170l310-170zM400 310v160H110z" fill="#002373"/><path d="M460 300v170h510z" fill="#cd0019"/><path d="M480 330v120h370z" fill="#fff"/><path d="M460 220h490l25 30-25 30H460l30-30z" fill="#cd0019"/><path d="M490 230h450l20 20-20 20H490l20-20z" fill="#f8d80e"/><path d="M30 220V50l310 170zM400 190V30H110z" fill="#002373"/><path d="M460 200V30h510z" fill="#cd0019"/><path d="M480 170V50h370z" fill="#fff"/></svg>
